X: 8819
T: Cuil Aodha, The
R: polka
M: 2/4
K: Gmajor
|:B/A/|GB DE|G>F Ge|dB AG|dB AB/A/|
GB DE|G>F Ge|dB AG/A/|BG G:|
|:G/A/|B/c/d Bd|g2 ge|dB AG|d/e/d/B/ A2|
B/c/d B/c/d|g>f ge|dB AG/A/|BG G:|

